X:71
T:Doran's Ass
B:Terry "Cuz" Teahan "Sliabh Luachra on Parade" 1980
Z:Patrick Cavanagh
M:2/4
L:1/8
R:Polka
K:D
| FA AB/c/ | d2 de/f/ | ge fd | BA FA | 
FA AB/c/ | d2 de/f/ | ge fd | BA A2 :| 
| fa af | ed de | fa af | e/g/e de | 
fa af | edd/e/f | gefd | BA A2 :|| 

